icons/arrow-expand-4-filled.svg

<svg viewBox="0 0 24 24"><path fill="currentColor" fill-rule="evenodd" d="M18 2.4a3.6 3.6 0 0 1 3.6 3.6v12a3.6 3.6 0 0 1-3.6 3.6h-12a3.6 3.6 0 0 1-3.6-3.6v-12a3.6 3.6 0 0 1 3.6-3.6zm-4.3 2.6a1 1 0 1 0 0 2h1.9l-2.8 2.8a1 1 0 0 0 1.4 1.4l2.8-2.8v2a1 1 0 1 0 2 0v-4.4a1 1 0 0 0-1-1zm-2.6 9.2a1 1 0 0 0-1.5-1.4l-2.6 2.7v-1.8a1 1 0 1 0-2 0v4.3a1 1 0 0 0 1 1h4.3a1 1 0 1 0 0-2h-2z" clip-rule="evenodd"/></svg>

<svg viewBox="0 0 24 24"><path fill="currentColor" fill-rule="evenodd" d="M18 2.4A3.6 3.6 0 0 1 21.6 6v12a3.6 3.6 0 0 1-3.6 3.6H6A3.6 3.6 0 0 1 2.4 18V6A3.6 3.6 0 0 1 6 2.4zM13.7 5a1 1 0 1 0 0 2h1.9l-2.8 2.8a1 1 0 0 0 1.4 1.4L17 8.4v2a1 1 0 1 0 2 0V6a1 1 0 0 0-1-1zM11 14.2a1 1 0 0 0-1.5-1.4L7 15.5v-1.8a1 1 0 1 0-2 0V18a1 1 0 0 0 1 1h4.3a1 1 0 1 0 0-2h-2z" clip-rule="evenodd"/></svg>
